static/Logo_2_0.svg

<?xml version="1.0" encoding="UTF-8" standalone="no"?>
<svg
   version="1.1"
   width="512"
   height="512"
   viewBox="0 0 229.25377 229.25377"
   id="svg140"
   xmlns="http://www.w3.org/2000/svg"
   xmlns:svg="http://www.w3.org/2000/svg">
Logo 2.0 - Component A
<g
   fill="#1ba78b"
   id="logo"
   transform="translate(10.586867,63.326875)">
  <path
     d="M 112.96482,0.18 29.822388,48.182307 24.422384,51.299998 112.96482,102.42 H 63.36 c -9.941125,0 -18,-8.058878 -18,-18.000001 V 77.488606 L 0,51.299998 45.36,25.11139 V 18.179998 C 45.36,8.238875 53.418875,0.18 63.36,0.18 Z M 127.61089,0.037933 38.822383,51.299998 127.61089,102.56206 c 0.65994,0.0252 1.32305,0.0379 1.98911,0.0379 28.31324,0 51.3,-22.98676 51.3,-51.300002 C 180.9,22.986757 157.91324,0 129.6,0 c -0.66606,0 -1.32917,0.01272 -1.98911,0.037933 z m -18.88852,21.32813 -51.847102,29.933935 51.847102,29.933936 v -0.242483 h 15.46845 c 0.828,0.06923 1.66557,0.104548 2.51133,0.104548 0.84576,0 1.68333,-0.03532 2.51133,-0.104548 h 0.416 v -0.03771 c 15.0731,-1.472636 26.86867,-14.196557 26.86867,-29.653744 0,-15.457186 -11.79557,-28.181107 -26.86867,-29.653743 v -0.03771 h -0.416 c -0.828,-0.06923 -1.66557,-0.104548 -2.51133,-0.104548 -0.84576,0 -1.68333,0.03532 -2.51133,0.104548 l -15.46845,-2e-6 z m 0,0.24248 V 80.991451 H 108.72 V 21.608543 Z"
     fill-rule="evenodd"
     stroke="none"
     id="path132" />
  <path
     d="M 186.81592,63.576823 C 187.67198,59.578856 188.1,55.486581 188.1,51.299998 v -8e-6 c 0,-4.186574 -0.42804,-8.278848 -1.2841,-12.276823 L 208.08,51.299998 Z"
     fill-rule="evenodd"
     stroke="none"
     id="path134" />
</g>
<defs
   id="defs138" />
</svg>
<!--
Generator: Cuttle.xyz
-->

<?xml version="1.0" encoding="UTF-8" standalone="no"?>
<svg xmlns="http://www.w3.org/2000/svg" xmlns:xlink="http://www.w3.org/1999/xlink" version="1.1" width="2.8899999856948853in" height="1.4249999523162842in" viewBox="0 0 208.07999897003174 102.59999656677246">
Logo 2.0 - Component A
<g  fill="#1ba78b">
<path d="M112.964819 0.18 L29.822388 48.182307 L24.422384 51.299998 L112.964818 102.419997 L63.36 102.419997 C53.418875 102.419997 45.36 94.361122 45.36 84.419999 L45.36 77.488606 L0.0 51.299998 L45.36 25.11139 L45.36 18.179998 C45.36 8.238875 53.418875 0.18 63.36 0.18 L112.964819 0.18 Z M127.610892 0.037933 L38.822383 51.299998 L127.610892 102.562064 C128.270827 102.587276 128.93394 102.599997 129.600001 102.599997 C157.91324 102.599997 180.900003 79.61324 180.900003 51.299998 C180.900003 22.986757 157.91324 0.0 129.600001 0.0 C128.93394 0.0 128.270827 0.01272 127.610892 0.037933 Z M108.722366 21.366063 L56.875268 51.299998 L108.722366 81.233934 L108.722366 80.991451 L124.190822 80.991451 C125.018816 81.060684 125.856392 81.095999 126.702149 81.095999 C127.547907 81.095999 128.385482 81.060684 129.213477 80.991451 L129.629475 80.991451 L129.629475 80.953742 C144.702584 79.481106 156.498154 66.757185 156.498154 51.299998 C156.498154 35.842812 144.702584 23.118891 129.629475 21.646255 L129.629475 21.608545 L129.213477 21.608545 C128.385482 21.539312 127.547907 21.503997 126.702149 21.503997 C125.856392 21.503997 125.018816 21.539312 124.190822 21.608545 L108.722366 21.608543 L108.722366 21.366063 Z M108.722366 21.608543 L108.722366 80.991451 L108.72 80.991451 L108.72 21.608543 L108.722366 21.608543 Z "  fill-rule="evenodd" stroke="none" />
<path d="M186.815918 63.576823 C187.671976 59.578856 188.100005 55.486581 188.100005 51.299998 L188.099997 51.29999 C188.099997 47.113416 187.671959 43.021142 186.815901 39.023167 L208.079999 51.299998 L186.815918 63.576823 Z "  fill-rule="evenodd" stroke="none" />
</g>
<defs>


</defs>
</svg>
<!--
Generator: Cuttle.xyz
-->
